public/formular-icons/greece/lower-psi.svg

<svg style="vertical-align:-.464ex" xmlns="http://www.w3.org/2000/svg" width="1.473ex" height="2.034ex" viewBox="0 -694 651 899" xmlns:xlink="http://www.w3.org/1999/xlink"><defs><path id="a" d="M161 441q41 0 65-24t24-59q0-20-32-106t-31-125q3-42 27-66 21-18 43-24 18-8 31-8h1l82 331q84 331 85 332 3 2 16 2 20 0 20-7 0-9-81-331-82-328-82-329t6-1q86 0 163 88t78 164q0 24-8 41t-18 24-18 18-8 23q0 21 17 40t42 19q19 0 35-18t16-59q0-29-11-78t-18-68q-32-95-113-163T329-11h-10l-23-93q-24-94-24-95-2-6-20-6h-13q-6 6-6 8 0 5 23 95t23 93q-7 1-14 1-159 22-159 147 0 35 33 125t34 115v14q0 3-4 7t-11 4h-4q-23 0-42-19t-30-41-17-42-8-22q-2-2-16-2H27q-6 6-6 9 0 12 13 46t48 71 79 37Z"/></defs><g stroke="currentColor" fill="currentColor" stroke-width="0"><use data-c="1D713" xlink:href="#a" transform="scale(1 -1)"/></g></svg>

<svg style="vertical-align: -0.464ex" xmlns="http://www.w3.org/2000/svg" width="1.473ex" height="2.034ex" role="img" focusable="false" viewBox="0 -694 651 899" xmlns:xlink="http://www.w3.org/1999/xlink"><defs><path id="MJX-132-TEX-I-1D713" d="M161 441Q202 441 226 417T250 358Q250 338 218 252T187 127Q190 85 214 61Q235 43 257 37Q275 29 288 29H289L371 360Q455 691 456 692Q459 694 472 694Q492 694 492 687Q492 678 411 356Q329 28 329 27T335 26Q421 26 498 114T576 278Q576 302 568 319T550 343T532 361T524 384Q524 405 541 424T583 443Q602 443 618 425T634 366Q634 337 623 288T605 220Q573 125 492 57T329 -11H319L296 -104Q272 -198 272 -199Q270 -205 252 -205H239Q233 -199 233 -197Q233 -192 256 -102T279 -9Q272 -8 265 -8Q106 14 106 139Q106 174 139 264T173 379Q173 380 173 381Q173 390 173 393T169 400T158 404H154Q131 404 112 385T82 344T65 302T57 280Q55 278 41 278H27Q21 284 21 287Q21 299 34 333T82 404T161 441Z"></path></defs><g stroke="currentColor" fill="currentColor" stroke-width="0" transform="scale(1,-1)"><g data-mml-node="math"><g data-mml-node="mi"><use data-c="1D713" xlink:href="#MJX-132-TEX-I-1D713"></use></g></g></g></svg>
